lib/functional/design/marker-circle.svg

<svg xmlns="http://www.w3.org/2000/svg" fill="none" stroke="currentColor" aria-hidden="true" viewBox="0 0 32 32"><g id="Icon-MarkerCircle"><g clip-path="url(#clip0_8_932)"><g id="size=md (32px)"><g id="MarkerCircle"><path id="Vector" stroke-linecap="round" stroke-linejoin="round" stroke-width="2" d="M16 28C22.6274 28 28 22.6274 28 16C28 9.37258 22.6274 4 16 4C9.37258 4 4 9.37258 4 16C4 22.6274 9.37258 28 16 28Z"/><path id="Vector_2" stroke-linecap="round" stroke-linejoin="round" stroke-width="2" d="M22 26.4V22C22 21.7348 21.8946 21.4804 21.7071 21.2929C21.5196 21.1054 21.2652 21 21 21H11C10.7348 21 10.4804 21.1054 10.2929 21.2929C10.1054 21.4804 10 21.7348 10 22V26.4"/><path id="Vector_3" stroke-linecap="round" stroke-linejoin="round" stroke-width="2" d="M12 21V18C12 17.7348 12.1054 17.4804 12.2929 17.2929C12.4804 17.1054 12.7348 17 13 17H19C19.2652 17 19.5196 17.1054 19.7071 17.2929C19.8946 17.4804 20 17.7348 20 18V21"/><path id="Vector_4" stroke-linecap="round" stroke-linejoin="round" stroke-width="2" d="M18.475 17L16.975 9.8C16.7625 8.7375 15.2375 8.7375 15.025 9.8L13.525 17"/></g></g></g></g><defs><clipPath id="clip0_8_932"><rect width="32" height="32" fill="white" rx="5"/></clipPath></defs></svg>

<svg xmlns="http://www.w3.org/2000/svg" fill="none" stroke="currentColor" aria-hidden="true" viewBox="0 0 32 32"><g stroke="#101828" stroke-linecap="round" stroke-linejoin="round" stroke-width="2" clip-path="url(#a)"><path d="M16 28c6.627 0 12-5.373 12-12S22.627 4 16 4 4 9.373 4 16s5.373 12 12 12Z"/><path d="M22 26.4V22a1 1 0 0 0-1-1H11a1 1 0 0 0-1 1v4.4m2-5.4v-3a1 1 0 0 1 1-1h6a1 1 0 0 1 1 1v3m-1.525-4-1.5-7.2c-.213-1.063-1.738-1.063-1.95 0l-1.5 7.2"/></g><defs><clipPath id="a"><rect width="32" height="32" fill="#fff" rx="5"/></clipPath></defs></svg>
